X: 19
T: Bucks Of Oranmore, The
Z: DanG
S: https://thesession.org/tunes/2#setting49167
R: reel
M: 4/4
L: 1/8
K: Dmaj
A2FA A2dB|A2FA BEE2|A2FA A2Bd|egfd edBd|
A2FA A2dB|A2FA BEE2|D3F ADFA|defd efdB|
ADD2 ADBD|ADFA BEE2|ADD2 ADFA|defd efdB|
ADD2 ADBD|ADFA BEE2|D3F ADFA|defd efdf|
a2fd efdf|a2fd edBd|a2fd edef|gefd edBd|
a2fd efdf|a2fd edBd|faa2 bfaf|defde2de|
f2df e2de|f2df edBd|f2df e2de|gefd edBd|
f2df e2de|f2df edBd|faaf bfaf|gefd edBd|
Adfd edfd|Adfd edBd|Adfd edfd|gefd edBd|
Adfd edfd|Adfd edB2|faaf bfaf|gefd edBd||

